X:10744
T:Michael Wiggins in Ireland. TLY.049
M:6/8
L:1/8
S:Wm.Tildesley,Swinton,Lancs.1860s.
R:Jig
O:England.
A:Lancashire.
H:1860.
Z:Taz Tarry.
K:D
A|dfe dcB|ABA AFA| DFA dfa| baf e2A|dfe dcB|ABA AFA|!
 DFA dfa|gfe d2||f|afd dfa| b2 a g2 f| gab afd| cee efg|!
 afd dfa| b2 a g2 f| gba gfe| fdd d2||g| fdf ece| dBd {B}AFD|!
 EFE EFA| agf e2g| fdf ece| dBd {B}AFD| DFA Bgf|edc d2|]
